!!!OTL: Muede kehrt ein Wandersmann zurueck nach der Heimat seiner Liebe Glueck
!!!ARE: Europa, Mitteleuropa, Deutschland, Hessen, Gross  Gerau, Klein Gerau
!!!SCT: D1001
!!!YEM: Copyright 1995, estate of Helmut Schaffrath.
**kern
*ICvox
*Ivox
*M2/4
*k[f#]
*G:
=1
{8.b
16a
8g
8f#
=2
8g
8f#
8g
8a
=3
8.d
16r}
{8d
8f#
=4
4.a
8g
=5
8f#
8a
8ee
8dd
=6
[2b
=7
8b]
8r}
{8g
8a
=8
4b
4dd
=9
8cc
8b
8a
8g
=10
[2e
=11
8e]
16r}
{16g
8f#
8e
=12
4.d
8g
=13
8f#
8a
8ee
8dd
=14
2b}
==
!!!AGN: Liebes - Lied
!! DVA-Signatur A 487
!!!ONB: ESAC (Essen Associative Code) Database: DVA
!!!AMT: simple duple
!!!AIN: vox
!!!EED: Helmut Schaffrath
!!!EEV: 1.0
*-
